X: 4
T: Jimmy in the Swamp
M: C|
Z: Transcribed to abc by Mary Lou Knack
R: reel
K: G
|:\
"G"DEGA BAGA | Bded efg2 | DEGA BAGA | "C"B2AG "D"EFGE |
"G"DEGA BAGA | Bded efga | "Em"b2ag "C"efge |1 "D"dBAF "G"G3E :|2 "D"dBAF "G"GABd |]
|:\
"Em"e3d B2Bd | efed B2gf | e2E2- EFGA | "Bm"B2AF "Em"GFE2 |
"Em"e3d B2Bd | efed B2gf | e2E2- "C"EFGA | "D"BGAF "G"G4 :|
